!!!id: bhatk3196a
!!!vol: 3
!!!page: 196
!!!antara: Seela sindhu sundara
!!!raag: bihag
!!!taal: teental
!!!tempo: madhyalaya
**kern
!!data: // >mP  -  P  S'/  -  S'  S'  -/  S'  S'  S'  S'/  >NS'  R'  S'  S'/
==1
f#q
2g
4g
[4cc
=
4cc]
4cc
2cc
=
4cc
4cc
4cc
4cc
=
bq
4cc
4dd
4cc
4cc
!!data: // >NS'  S'  S'  >R'S'/  N  -  P  P  >mP  -  S'  >R'S'/  [N  -  P]  -/
==2
bq
4cc
4cc
4cc
ddq
4cc
=
2b
4g
4g
f#q
2g
4cc
ddq
4cc
=
2bH
2gh
!!data: // >NS'  -  G'  M'/  >R'G'  -  S'  S'/  >PS'  %S'  -  N/  >D[N  -  P]  -/
==3
bq
2cc
4ee
4ff
=
ddq
2ee
4cc
4cc
=
gq
4cc
2ccS
4b
=
aq
2bH
2gh
!!data: // >mP  P  P  >PG/  M  >RG  G  G/  GM   PD  MP  M/  [G  -  S  S]/
==4
f#q
4g
4g
4g
gq
4e
=
4f
dq
4e
4e
4e
=
8e
8f
8g
8a
8f
8g
4f
=
2eH
4c
4ch
==
*-
